X: 62
M:2/4
L:1/16
K:G
vdc|Bcde dcBc|dBgB bBgd|Bcde dcBc|Aaag fedc|
|:BcBA .G2(BG)|DGBG DGBd|BcBA .G2(BG)|FGAB cedc|


